X:1
T:Oh Be Ready!
T:Oh Be Ready!
T:Joseph Lincoln Hall
T:J. G. B., 1900
T:Public Domain Courtesy of the Cyber Hymnal™
T:Public Domain Courtesy of the Cyber Hymnal™
C:Joseph Lincoln Hall
Z:Public Domain
Z:Courtesy of the Cyber Hymnal™
%%score ( 1 2 ) ( 3 4 )
L:1/8
Q:1/4=105
M:4/4
K:F
V:1 treble 
V:2 treble 
V:3 bass 
V:4 bass 
V:1
 C>C | [CF]2 [CF]2 [B,D]<[A,C] [CF]>[CG] | A6 C>C | [CF]2 [CF]2 [B,D]<[A,C] [CF]>[FA] | %4
w: 1.~When the|Bride- groom com- eth by and|by, When the|Bride- groom com- eth by and|
w: 2.~When the|Bride- groom com- eth by and|by, When the|Bride- groom com- eth by and|
w: 3.~When the|Bride- groom com- eth by and|by, When the|Bride- groom com- eth by and|
w: 4.~When the|Bride- groom com- eth by and|by, When the|Bride- groom com- eth by and|
w: 5.~When the|Bride- groom com- eth by and|by, When the|Bride- groom com- eth by and|
w: 6.~When the|Bride- groom com- eth by and|by, When the|Bride- groom com- eth by and|
 G6 [FA]>[GB] | [Ac]>[Bd] [Ac]>[FA] [Ac]2 [FA]>[CG] | [DF]>[DG] [DF]>[B,D] [DF]2 [DF]>[DG] | %7
w: by, Will your|lamps be burn- ing bright, Will your|robes be pure and white, When the|
w: by, Oh be|rea- dy for that day, With your|sins all washed a- way, When the|
w: by, Will your|wear- ied heart re- joice At the|sound of Je- sus’ voice, When the|
w: by, Will the|sor- rows of the past All be|changed to joy at last When the|
w: by, When the|Lord shall call His own, Can you|stand be- fore the throne, When the|
w: by, Will you|join the ran- somed host, Or be|found a- mong the lost, When the|
 [CA]2 [FA]2 [EG]<[EG] [EA]>[EG] | F6 z2 ||"^Refrain" [Fc]3 [Fd] [Fc] [FA]3 | %10
w: Bride- groom com- eth by and|by?||
w: Bride- groom com- eth by and|by.||
w: Bride- groom com- eth by and|by?||
w: Bride- groom com- eth by and|by?|Oh be rea- dy!|
w: Bride- groom com- eth by and|by?||
w: Bride- groom com- eth by and|by?||
 [DG]3 [DF] [B,D] [DF]3 | C<C [CF]>[CG] [FA]2 [Fc]2 | [EG]6 z2 | [Fc]3 [Fd] [Fc] [FA]3 | %14
w: ||||
w: ||||
w: ||||
w: Oh be rea- dy!|Rea- dy when the Bride- groom|comes;|Oh be rea- dy!|
w: ||||
w: ||||
 [DG]3 [DF] [B,D] [DF]3 | C<C [CF]>[CG] [FA]2 [EG]2 | [CF]6 |] %17
w: |||
w: |||
w: |||
w: Oh be rea- dy!|Rea- dy when the Bride- groom|comes.|
w: |||
w: |||
V:2
 C>C | x8 | (F2 F>F F2) C>C | x8 | (E2 E>E E2) x2 | x8 | x8 | x8 | F6 x2 || x8 | x8 | C<C x6 | x8 | %13
 x8 | x8 | x8 | x6 |] %17
V:3
 [F,A,]>[F,A,] | [F,A,]2 [F,A,]2 F,<F, [F,A,]>[F,B,] | ([F,C]2 [F,C]>[F,C] [F,C]2 [F,A,]>)[F,A,] | %3
 [F,A,]2 [F,A,]2 F,<F, [F,A,]>[F,C] | ([C,C]2 [C,C]>[C,C] [C,C]2) [F,C]>[F,C] | %5
 [F,F]>[F,F] [F,F]>[F,C] [F,F]2 [F,C]>[F,B,] | %6
 [B,,B,]>[B,,B,] [B,,B,]>[B,,F,] [B,,B,]2 [B,,B,]>[B,,B,] | %7
 [C,F,]2 [C,C]2 [C,B,]<[C,B,] [C,C]>[C,B,] | [F,A,]6 z2 || [F,A,]3 [F,B,] [F,A,] [F,C]3 | %10
 [B,,B,]3 [B,,B,] [B,,F,] [B,,B,]3 | [F,A,]<[F,A,] [F,A,]>[F,B,] [F,C]2 [A,C]2 | (C2 C>C C C3) | %13
 [F,A,]3 [F,B,] [F,A,] [F,C]3 | [B,,B,]3 [B,,B,] [B,,F,] [B,,B,]3 | %15
 [F,A,]<[F,A,] [F,A,]>[F,B,] [C,C]2 [C,B,]2 | [F,A,]6 |] %17
V:4
 x2 | x4 F,<F, x2 | x8 | x4 F,<F, x2 | x8 | x8 | x8 | x8 | x8 || x8 | x8 | x8 | x8 | x8 | x8 | x8 | %16
 x6 |] %17

